static/card-icons/emails.svg

<svg height="682.66669" viewBox="0 0 682.66669 682.66669" width="682.66669" xmlns="http://www.w3.org/2000/svg"><g style="fill:none;stroke:#000;stroke-width:30;stroke-linecap:round;stroke-linejoin:round;stroke-miterlimit:10" transform="matrix(1.3333333 0 0 -1.3333333 0 682.66667)"><path d="m497 15h-482v271h482z"/><path d="m0 0v120h360v-120" transform="translate(76 286)"/><path d="m0 0v91h240v-91" transform="translate(136 406)"/><path d="m0 0 149-119" transform="translate(77 405)"/><path d="m0 0-149-119" transform="translate(435 405)"/><path d="m0 0 89-89" transform="translate(137 495)"/><path d="m0 0-89-89" transform="translate(375 495)"/><path d="m0 0 240-180 240 180" transform="translate(16 285)"/><path d="m0 0 196.363 121.727" transform="translate(16 16)"/><path d="m0 0 196.363-121.727" transform="translate(299.6367 137.7271)"/></g></svg>

<?xml version="1.0" encoding="UTF-8" standalone="no"?>
<!-- Created with Inkscape (http://www.inkscape.org/) -->

<svg
   version="1.1"
   id="svg2940"
   xml:space="preserve"
   width="682.66669"
   height="682.66669"
   viewBox="0 0 682.66669 682.66669"
   xmlns="http://www.w3.org/2000/svg"
   xmlns:svg="http://www.w3.org/2000/svg"><defs
     id="defs2944"><clipPath
       clipPathUnits="userSpaceOnUse"
       id="clipPath2954"><path
         d="M 0,512 H 512 V 0 H 0 Z"
         id="path2952" /></clipPath><clipPath
       clipPathUnits="userSpaceOnUse"
       id="clipPath2968"><path
         d="M 0,512 H 512 V 0 H 0 Z"
         id="path2966" /></clipPath><clipPath
       clipPathUnits="userSpaceOnUse"
       id="clipPath2988"><path
         d="M 0,512 H 512 V 0 H 0 Z"
         id="path2986" /></clipPath></defs><g
     id="g2946"
     transform="matrix(1.3333333,0,0,-1.3333333,0,682.66667)"><g
       id="g2948"><g
         id="g2950"
         clipPath="url(#clipPath2954)"><path
           d="M 497,15 H 15 v 271 h 482 z"
           style="fill:none;stroke:#000000;stroke-width:30;stroke-linecap:round;stroke-linejoin:round;stroke-miterlimit:10;stroke-dasharray:none;stroke-opacity:1"
           id="path2956" /></g></g><g
       id="g2958"
       transform="translate(76,286)"><path
         d="M 0,0 V 120 H 360 V 0"
         style="fill:none;stroke:#000000;stroke-width:30;stroke-linecap:round;stroke-linejoin:round;stroke-miterlimit:10;stroke-dasharray:none;stroke-opacity:1"
         id="path2960" /></g><g
       id="g2962"><g
         id="g2964"
         clipPath="url(#clipPath2968)"><g
           id="g2970"
           transform="translate(136,406)"><path
             d="M 0,0 V 91 H 240 V 0"
             style="fill:none;stroke:#000000;stroke-width:30;stroke-linecap:round;stroke-linejoin:round;stroke-miterlimit:10;stroke-dasharray:none;stroke-opacity:1"
             id="path2972" /></g></g></g><g
       id="g2974"
       transform="translate(77,405)"><path
         d="M 0,0 149,-119"
         style="fill:none;stroke:#000000;stroke-width:30;stroke-linecap:round;stroke-linejoin:round;stroke-miterlimit:10;stroke-dasharray:none;stroke-opacity:1"
         id="path2976" /></g><g
       id="g2978"
       transform="translate(435,405)"><path
         d="M 0,0 -149,-119"
         style="fill:none;stroke:#000000;stroke-width:30;stroke-linecap:round;stroke-linejoin:round;stroke-miterlimit:10;stroke-dasharray:none;stroke-opacity:1"
         id="path2980" /></g><g
       id="g2982"><g
         id="g2984"
         clipPath="url(#clipPath2988)"><g
           id="g2990"
           transform="translate(137,495)"><path
             d="M 0,0 89,-89"
             style="fill:none;stroke:#000000;stroke-width:30;stroke-linecap:round;stroke-linejoin:round;stroke-miterlimit:10;stroke-dasharray:none;stroke-opacity:1"
             id="path2992" /></g><g
           id="g2994"
           transform="translate(375,495)"><path
             d="M 0,0 -89,-89"
             style="fill:none;stroke:#000000;stroke-width:30;stroke-linecap:round;stroke-linejoin:round;stroke-miterlimit:10;stroke-dasharray:none;stroke-opacity:1"
             id="path2996" /></g><g
           id="g2998"
           transform="translate(16,285)"><path
             d="M 0,0 240,-180 480,0"
             style="fill:none;stroke:#000000;stroke-width:30;stroke-linecap:round;stroke-linejoin:round;stroke-miterlimit:10;stroke-dasharray:none;stroke-opacity:1"
             id="path3000" /></g><g
           id="g3002"
           transform="translate(16,16)"><path
             d="M 0,0 196.363,121.727"
             style="fill:none;stroke:#000000;stroke-width:30;stroke-linecap:round;stroke-linejoin:round;stroke-miterlimit:10;stroke-dasharray:none;stroke-opacity:1"
             id="path3004" /></g><g
           id="g3006"
           transform="translate(299.6367,137.7271)"><path
             d="M 0,0 196.363,-121.727"
             style="fill:none;stroke:#000000;stroke-width:30;stroke-linecap:round;stroke-linejoin:round;stroke-miterlimit:10;stroke-dasharray:none;stroke-opacity:1"
             id="path3008" /></g></g></g></g></svg>
